icon-themes/sifr_svg/cmd/lc_hide.svg

<svg viewBox="0 0 24 24" xmlns="http://www.w3.org/2000/svg"><path d="m1 4v16h8.8789062l1.4999998-1.5-.5-.5h-7.878906v-8h8v3h1.121094l.234375.234375.644531-.554687v-2.679688h3.111328l2.263672-1.9492188c.021135-.0185916.046848-.0325243.068359-.0507812h-15.443359v-2h18v1h1c.354033 0 .684647.036472 1 .097656v-3.097656zm20 4c-.748763 0-1.4.3039097-1.964844.8007812l-6.035156 5.1992188h3l4.261719-3.683594c.302146-.316406.466536-.316406.738281-.316406h1v1c0 .552284.447715 1 1 1s1-.447716 1-1v-1c0-1.402542-.315061-2-2-2zm0 3v7h-2.878906l-.5.5 1.5 1.5h3.878906v-7c-1.092726 0-2-.907275-2-2zm-11 3v1.707031l2.792969 2.792969-2.792969 2.792969v1.707031h1.707031l2.792969-2.792969 2.792969 2.792969h1.707031v-1.707031l-2.792969-2.792969 2.792969-2.792969v-1.707031h-1.707031l-2.792969 2.792969-2.792969-2.792969z" fill="#555753"/></svg>

<svg xmlns="http://www.w3.org/2000/svg" viewBox="0 0 24 24">
  <path
     style="fill:#555753"
     d="m 1,4 v 16 h 8.8789062 l 1.4999998,-1.5 -0.5,-0.5 H 3 v -8 h 8 v 3 h 1.121094 L 12.355469,13.234375 13,12.679688 V 10 h 3.111328 L 18.375,8.0507812 C 18.396135,8.0321896 18.421848,8.0182569 18.443359,8 H 3 V 6 h 18 v 1 h 1 c 0.354033,0 0.684647,0.036472 1,0.097656 V 4 Z M 21,8 C 20.251237,8 19.6,8.3039097 19.035156,8.8007812 L 13,14 h 3 l 4.261719,-3.683594 C 20.563865,10 20.728255,10 21,10 h 1 v 1 c 0,0.552284 0.447715,1 1,1 0.552285,0 1,-0.447716 1,-1 V 10 C 24,8.597458 23.684939,8 22,8 Z m 0,3 v 7 h -2.878906 l -0.5,0.5 1.5,1.5 H 23 v -7 c -1.092726,0 -2,-0.907275 -2,-2 z m -11,3 v 1.707031 L 12.792969,18.5 10,21.292969 V 23 h 1.707031 L 14.5,20.207031 17.292969,23 H 19 V 21.292969 L 16.207031,18.5 19,15.707031 V 14 H 17.292969 L 14.5,16.792969 11.707031,14 Z"
     />
</svg>
